X:1
T:Blow Away the Morning Dew
C:
Q:140
M:2/2
L:1/8
K:G
z4 z2 D2 |D2 G2 G2 G2 |G4 z2 G2 |A2 B2 c2 A2 |B6 G2 |
w: There was a shep-herd's son kept sheep up-on a hill. He
B2 B2 B2 G2 |A2 A2 A2 F2 |G2 F2 E2 D2 |c4 B2 A2 |G3 G G2 E2 |
w: laid his pipe and crook a-side, and there he slept his fill. And sing blow a-way the
E2 D2 D2 z d |d4 B2 d2 |e6 z2 |d3 B G2 A2 |B2 G2 E2 c2 |
w: morn-ing dew. The dew and the dew. Blow a-way the morn-ing dew. How
B3 G A3 F |G4 z4 |
w: sweet the winds do blow.
